svg/fluentui-system-icons/ic_fluent_briefcase_24_filled.svg

<svg width="24" height="24" viewBox="0 0 24 24" fill="none" xmlns="http://www.w3.org/2000/svg">
<path d="M10.25 3.5H13.75C14.1642 3.5 14.5 3.83579 14.5 4.25V6H9.5V4.25C9.5 3.83579 9.83579 3.5 10.25 3.5ZM8 4.25V6H6.25C4.45507 6 3 7.45507 3 9.25V10.75C3 11.7165 3.7835 12.5 4.75 12.5H10V12C10 11.4477 10.4477 11 11 11H13C13.5523 11 14 11.4477 14 12V12.5H19.25C20.2165 12.5 21 11.7165 21 10.75V9.25C21 7.45507 19.5449 6 17.75 6H16V4.25C16 3.00736 14.9926 2 13.75 2H10.25C9.00736 2 8 3.00736 8 4.25ZM21 13.4891C20.4949 13.8125 19.8943 14 19.25 14H14C14 14.5523 13.5523 15 13 15H11C10.4477 15 10 14.5523 10 14H4.75C4.10568 14 3.50515 13.8125 3 13.4891V16.75C3 18.5449 4.45507 20 6.25 20H17.75C19.5449 20 21 18.5449 21 16.75V13.4891Z" fill="#212121"/>
</svg>

<svg xmlns="http://www.w3.org/2000/svg" width="24" height="24"><path d="M10.25 3.5h3.5a.75.75 0 0 1 .75.75V6h-5V4.25a.75.75 0 0 1 .75-.75ZM8 4.25V6H6.25A3.25 3.25 0 0 0 3 9.25v1.5c0 .966.784 1.75 1.75 1.75H10V12a1 1 0 0 1 1-1h2a1 1 0 0 1 1 1v.5h5.25A1.75 1.75 0 0 0 21 10.75v-1.5A3.25 3.25 0 0 0 17.75 6H16V4.25A2.25 2.25 0 0 0 13.75 2h-3.5A2.25 2.25 0 0 0 8 4.25Zm13 9.24a3.235 3.235 0 0 1-1.75.51H14a1 1 0 0 1-1 1h-2a1 1 0 0 1-1-1H4.75A3.235 3.235 0 0 1 3 13.49v3.26A3.25 3.25 0 0 0 6.25 20h11.5A3.25 3.25 0 0 0 21 16.75v-3.26Z"/></svg>
